@extra/phlat-icons/symbolic-22/mplayer.svg

<?xml version="1.0" encoding="UTF-8" standalone="no"?>
<svg id="svg8" xmlns="http://www.w3.org/2000/svg" version="1.1" viewBox="-3 -3 22 22"><path id="rect4497" style="opacity:.3;fill:#f1f2f2" d="m8 1c-0.4673 0-0.9349 0.1791-1.293 0.5371l-5.1699 5.1699c-0.71608 0.7161-0.71608 1.8699 0 2.586l5.1699 5.17c0.7161 0.716 1.8699 0.716 2.586 0l5.17-5.17c0.716-0.7161 0.716-1.8699 0-2.586l-5.17-5.1699c-0.3581-0.358-0.8257-0.5371-1.293-0.5371zm-2 5l4 2-4 2v-4z"/><path id="rect4503" style="fill:#f1f2f2" d="m4.666 3c-0.9233 0-1.666 0.7427-1.666 1.666v6.668c0 0.923 0.7427 1.666 1.666 1.666h6.668c0.923 0 1.666-0.743 1.666-1.666v-6.668c0-0.9233-0.743-1.666-1.666-1.666h-6.668zm1.334 3l4 2-4 2v-4z"/></svg>

<svg xmlns="http://www.w3.org/2000/svg" viewBox="-3 -3 22 22">
    <path d="M8 1c-.467 0-.935.18-1.293.537l-5.17 5.17a1.825 1.825 0 0 0 0 2.586l5.17 5.17c.716.716 1.87.716 2.586 0l5.17-5.17a1.825 1.825 0 0 0 0-2.586l-5.17-5.17A1.823 1.823 0 0 0 8 1zM6 6l4 2-4 2V6z" opacity=".3" fill="#f1f2f2"/>
    <path d="M4.666 3C3.743 3 3 3.743 3 4.666v6.668C3 12.257 3.743 13 4.666 13h6.668c.923 0 1.666-.743 1.666-1.666V4.666C13 3.743 12.257 3 11.334 3H4.666zM6 6l4 2-4 2V6z" fill="#f1f2f2"/>
</svg>
